server/website/public/icons/base/movies.svg

<svg width="48" height="48" viewBox="0 0 48 48" fill="none" xmlns="http://www.w3.org/2000/svg">
<g clip-path="url(#clip0_1398_24755)">
<path d="M0 0H48V48H0V0ZM5.33333 5.33333V10.6667H10.6667V5.33333H5.33333ZM16 5.33333V21.3333H32V5.33333H16ZM37.3333 5.33333V10.6667H42.6667V5.33333H37.3333ZM42.6667 16H37.3333V21.3333H42.6667V16ZM42.6667 26.6667H37.3333V32H42.6667V26.6667ZM42.6667 37.3333H37.3333V42.6667H42.6667V37.3333ZM32 42.6667V26.6667H16V42.6667H32ZM10.6667 42.6667V37.3333H5.33333V42.6667H10.6667ZM5.33333 32H10.6667V26.6667H5.33333V32ZM5.33333 21.3333H10.6667V16H5.33333V21.3333Z" fill="black"/>
</g>
<defs>
<clipPath id="clip0_1398_24755">
<rect width="48" height="48" fill="white"/>
</clipPath>
</defs>
</svg>

<svg width="48" height="48" fill="none" xmlns="http://www.w3.org/2000/svg"><g clip-path="url(#prefix__clip0_1398_24755)"><path d="M0 0h48v48H0V0zm5.333 5.333v5.334h5.334V5.333H5.333zm10.667 0v16h16v-16H16zm21.333 0v5.334h5.334V5.333h-5.334zM42.667 16h-5.334v5.333h5.334V16zm0 10.667h-5.334V32h5.334v-5.333zm0 10.666h-5.334v5.334h5.334v-5.334zM32 42.667v-16H16v16h16zm-21.333 0v-5.334H5.333v5.334h5.334zM5.333 32h5.334v-5.333H5.333V32zm0-10.667h5.334V16H5.333v5.333z" fill="#000"/></g><defs><clipPath id="prefix__clip0_1398_24755"><path fill="#fff" d="M0 0h48v48H0z"/></clipPath></defs></svg>
